X: 539
T: Mist Over Tennessee
T: the Grand Mira Jig
C: Angus MacDougall & Mickey Gillis 1938
O: Cape Breton
N: Angus and Mickey lived in Grand Mira.
Z: John Chambers <jc:trillian.mit.edu>
M: 6/8
L: 1/8
R: jig
K: G
"D7"d2c \
| "G"B2B BGE | DGB d3 | "C"~e3 "G"dBG | "Am"c3- cAB \
| "D7"c2c cAF | DFA c3 | d2d d2c | "G"B3 "D7"d2c ||
y4\
| "G"B2B BGE | DGB d3 | "C"~e3 "G"dBG | "Am"c3- cAB \
| "D7"c2c cAF | DFA cBc | ded cBA | "G"G3 |]
"D7"g2a \
| "G"bz2 g3 | ded B3 | DGB DGB | "Am"c3- cBA \
| "D7"az2 f3 | ded dBc | ded cBA | "G"Bc^c "D7"d2g  ||
y4\
| "G"bza g2e | ded B3 | DGB DGB | "Am"c3- cBA \
| "D7"az2 f2e | ded dBc | ded cBA | "G"G3 |]

